src/assets/duotone/MessageTime.svg

<svg width="24" height="24" viewBox="0 0 24 24"  xmlns="http://www.w3.org/2000/svg">
<path opacity="0.4" d="M22 7.43018V13.4302C22 14.9302 21.5 16.1802 20.62 17.0602C19.75 17.9302 18.5 18.4302 17 18.4302V20.5602C17 21.3602 16.11 21.8402 15.45 21.4002L11 18.4302H8.88C8.96 18.1302 9 17.8202 9 17.5002C9 16.4802 8.61 15.5402 7.97 14.8302C7.25 14.0102 6.18 13.5002 5 13.5002C3.88 13.5002 2.86 13.9602 2.13 14.7102C2.04 14.3102 2 13.8802 2 13.4302V7.43018C2 4.43018 4 2.43018 7 2.43018H17C20 2.43018 22 4.43018 22 7.43018Z" />
<path d="M15.5 11.25H8.5C8.09 11.25 7.75 10.91 7.75 10.5C7.75 10.09 8.09 9.75 8.5 9.75H15.5C15.91 9.75 16.25 10.09 16.25 10.5C16.25 10.91 15.91 11.25 15.5 11.25Z" />
<path d="M5 13.5C4.06 13.5 3.19 13.83 2.5 14.38C1.58 15.11 1 16.24 1 17.5C1 19.71 2.79 21.5 5 21.5C6.01 21.5 6.93001 21.12 7.64001 20.5C8.47001 19.77 9 18.7 9 17.5C9 15.29 7.21 13.5 5 13.5ZM6 17.75C6 18.01 5.86001 18.26 5.64001 18.39L4.39001 19.14C4.27001 19.21 4.14 19.25 4 19.25C3.75 19.25 3.49999 19.12 3.35999 18.89C3.14999 18.53 3.25999 18.07 3.62 17.86L4.51001 17.33V16.25C4.51001 15.84 4.85001 15.5 5.26001 15.5C5.67001 15.5 6.01001 15.84 6.01001 16.25V17.75H6Z" />
</svg>

<?xml version="1.0" encoding="UTF-8"?>
<svg width="24" height="24" viewBox="0 0 24 24" xmlns="http://www.w3.org/2000/svg">
 <path d="m22 7.4302v6c0 1.5-0.5 2.75-1.38 3.63-0.87 0.87-2.12 1.37-3.62 1.37v2.13c0 0.8-0.89 1.28-1.55 0.84l-4.45-2.97h-2.12c0.08-0.3 0.12-0.61 0.12-0.93 0-1.02-0.39-1.96-1.03-2.67-0.72-0.82-1.79-1.33-2.97-1.33-1.12 0-2.14 0.46-2.87 1.21-0.09-0.4-0.13-0.83-0.13-1.28v-6c0-3 2-5 5-5h10c3 0 5 2 5 5z" opacity=".4"/>
 <path d="m15.5 11.25h-7c-0.41 0-0.75-0.34-0.75-0.75s0.34-0.75 0.75-0.75h7c0.41 0 0.75 0.34 0.75 0.75s-0.34 0.75-0.75 0.75z"/>
 <path d="m5 13.5c-0.94 0-1.81 0.33-2.5 0.88-0.92 0.73-1.5 1.86-1.5 3.12 0 2.21 1.79 4 4 4 1.01 0 1.93-0.38 2.64-1 0.83-0.73 1.36-1.8 1.36-3 0-2.21-1.79-4-4-4zm1 4.25c0 0.26-0.13999 0.51-0.35999 0.64l-1.25 0.75c-0.12 0.07-0.25001 0.11-0.39001 0.11-0.25 0-0.50001-0.13-0.64001-0.36-0.21-0.36-0.1-0.82 0.26001-1.03l0.89001-0.53v-1.08c0-0.41 0.34-0.75 0.75-0.75s0.75 0.34 0.75 0.75v1.5h-0.01001z"/>
</svg>
